X:1
T:Symphony No. 6 in F-Major
T:Symphony No. 6 in F-Major
T:"Pastoral" 4th Movement
T:Ludwig van Beethoven
T:Arranged for piano by Franz Liszt
C:Ludwig van Beethoven
Z:Arranged for piano
%%score { ( 1 3 5 ) | ( 2 4 ) }
L:1/8
Q:1/4=160
M:4/4
K:Ab
V:1 treble nm="Piano" snm="Pno."
V:3 treble 
V:5 treble 
V:2 bass 
V:4 bass 
V:1
"^Allegro" z8 | z8 | z!pp! .A.B.A ._G.F.E.D | .C.D.E.F ._G.A.G.F | z2 c2 _g2 f2 | z2 c2 _g2 f2 | %6
 x2 .=d.e .f._g.a.b | ._c' z x2 x4 | [_C_c]8- | [Ccf]8 | z8 | z8 | z!p! .B._c.B .A._G.F.E | %13
 .=D.E.F._G .A.B.A.G | z2 =d2 a2 _g2 | z2 =d2 a2 _g2 | z2 .=e.f .g.a.b.c' | .d'2 .=E.F .G.A.B.c | %18
 [Dd]8 | [Bdb]8 |!fff! !//-!f'2 [fac']2 !//-!f'2 [fac']2 | !//-!f'2 [fac']2 !//-!f'2 [fac']2 | %22
 !arpeggio!!^![fac'f']6 [cfac']>[Aa] | [FAcf]2 [CFAc]>[A,A] [F,A,CF]2 [F,A,CF]2 | %24
!ff! !//-![bd'=e']2 [=eg]2 !//-![bd'e']2 [eg]2 | !//-![bd'=e']2 [=eg]2 !//-![bd'e']2 [eg]2 | %26
 !arpeggio![=ebd'=e']6 [Bdeb]>[Gg] | [=EBd=e]2 [DEGd]>[B,B] [G,B,DG]2 [=E,G,DE]2 | %28
 [_E,G,C_E]/ e/[_gc'e']/e/[gc'e']/e/[gc'e']/e/ [gc'e']/ g/[c'e'_g']/g/[c'e'g']/g/[c'e'g']/g/ | %29
 !//-![c'e'_g']2 _g2 !//-![c'e'g']2 g2 | [_gc'e'_g']6 [egc'e']>[cc'] | %31
 [_Gce_g]2 [EGce]>[Cc] [_G,CEG]2 E>C | %32
 D!ff!!8va(! (3d'/-f'/-b'/- [d'f'b'd'']!8va)! z!f! !//-![DF]2 B,2 | %33
 [A,=B,]!f! =d/4-f/4-a/4-=b/4- [dfab=d'] z!f! !//-![=DFA]2 B,2 | %34
 C2 z2[Q:1/4=130]"^ten." [cc']3!f![Q:1/4=160] .[Gg] | %35
 .[Aa].[=E=e].[Ff].[Cc] .[Dd].[Cc].[Cc].[B,B] | %36
 .[A,A]2 z2[Q:1/4=130]"^ten." [Aa]3!f![Q:1/4=160] [=E=e] | %37
 .[Ff].[Cc].[Dd].[A,A] .[B,B].[A,A].[A,A].[G,G] | %38
 .[F,F]2 z2[Q:1/4=130]"^ten." [Ff]3[Q:1/4=160]!f! .[Cc] | %39
 .[Dd].[A,A].[B,B].[F,F] .[_G,_G].[F,F].[F,F].[E,E] | D A,A,A, A,A,A,A, | A,A,A,A, A,A,A,A, | %42
 .[F,A,]!8va(! d'/f'/!ff! .[ad'a']!8va)! z z4 | z8 | %44
[K:bass]!pp! F,/!<(!A,/F,/A,/ F,/A,/F,/A,/ F,/A,/F,/A,/ F,/A,/F,/A,/ | %45
 !//-!F,2 A,2 !//-!F,2 A,2!<)! |!f! [=B,,F,G,][K:treble] =d'/f'/!ff! .[fg=bg'] z z4 | z8 | %48
!p!"_cresc." !//-![G,CE]2 G2 !//-![G,CE]2 G2 | !//-![G,CE]2 G2 !//-![G,CE]2 G2 | %50
!f! [=A,CE=A]!8va(!!<(! c'/e'/!<)! .[=a=a']!8va)! z!f! !//-!!^![E^FA]2 C2 | %51
 z!f!!8va(! c'/!<(!e'/!<)! .[=a=a']!8va)! z!f! !//-![EFB]2 C2 | %52
 z!f!!8va(! d'/!<(!f'/!<)! .[bb']!8va)! z!f! !//-![FB]2 D2 | %53
 z!f!!8va(! =d'/!<(!f'/!<)! [=b=b']!8va)! z!f! !//-![FG=B]2 =D2 | %54
 z!f! e/g/ .[cc'] z z!f! =e/g/ .[cc'] z | .[^c=e^c']!p! .^c.=e.=d .c.=B.=A.^G | %56
 .=A.=e.g.f .e.=d.^c.=B | .^c.g.b.=a .g.f.=e.=d | B8 | ^c8 | .B.=A.G.F .=E.=D.^C.B, | %61
!pp! !//-!G,2 =A,2 !//-!G,2 A,2 | !//-!G,2 =A,2 !//-!G,2 A,2 | %63
[K:bass]!pp! !//-![=D,^F,]2 =A,2 !//-![D,F,]2 A,2 | !//-![=D,^F,]2 =A,2 !//-![D,F,]2 A,2 | %65
 [=D,^F,][K:treble]!pp! .=a.=b.a .g.^f.=e.=d | %66
!p! z!8va(!!>(! .[=a=a'].[=b=b'].[aa'] .[gg'].[^f^f'].[=e=e'].[=d=d']!>)! | %67
!pp! [_e_e']2!8va)! =A2 x4 | !//-![^F,=A,C]2 E2 !//-![F,A,C]2 E2 | [^F,=A,CE] .e.=f.e .=d.c.B.=A | %70
 z!p! .[ee']!>(!.[=ff'].[ee'] .[=d=d'].[cc'].[Bb].[=A=a]!>)! |!pp! z"_cresc." .E.F.E ._D.C.B,.=A, | %72
 =A4 =a4 | z .F._G.F .E.D.C.B, | B4 b4 | z .F.=G.F .E.=D.C._B, | =B4 =b4 | %77
!fff! !^![g=b=d'g'][=dd'][=Bb][Gg][=Dd][=B,B] [G,B,DG][gg'] | %78
 !^![gc'e'g'][ee'][cc'][Gg][Ee][Cc] [G,=B,FG][gg'] | %79
 !^![gc'e'g'][ee'][cc'][Gg][Ee][Cc] [G,_DEG][gg'] | !^![ac'e'a'][ee'][cc'][Aa][Ee][Cc] [A,A][aa'] | %81
 !^![ac'e'a'][ee'][cc'][Aa][Ee][Cc] !>![A,CEA][aa'] | %82
 !^![ad'f'a'][ff'][dd'][Aa][Ff][Dd] !>![A,C_GA][aa'] | %83
 !^![ad'f'a'][ff'][dd'][Aa][Ff][Dd]!8va(! !>![=Aef=a][=a=a'] | %84
 !^![b=d'f'b'][ff']!8va)![=dd'][Bb][Ff][=D=d] !>![B,B]!8va(![bb'] | %85
 !^![b=d'f'b'][ff']!8va)![=dd'][Bb][Ff][=D=d] !>![B,DFB]!8va(![bb'] | %86
 !^![be'_g'b'][_gg']!8va)![ee'][Bb][_G_g][Ee] !>![B,=DAB]!8va(![bb'] | %87
 !^![be'_g'b'][_gg']!8va)![ee'][Bb][_G_g][Ee] !>![CGc][CGc] | [DFd]2 z [fd'f'] [ff']4 | %89
 .[Bb].[Ff].[_G_g].[Ff] .[Ee].[Dd].[Dd].[Cc] | .[B,B]2 z [dbd'] !>![dd']4 | %91
 .[_G_g].[Dd].[Ee].[Dd] .[_C_c].[B,B].[B,B].[A,A] | .[_G,_G]2 z !>![_g_g'] !^!g'4 | %93
 .[Ee].[B,B].[_C_c].[B,B] .[A,A].[_G,_G].[G,G].[=G,=G] | %94
 !arpeggio!.[G,B,DG][^f^f'] !^![gg']2- [gg']!p![ff'][=f=f'][=e=e'] | %95
 [=d=d'][_d_d'][cc'][=B=b] z/"_cresc." [_B_b][=A=a][_A_a][Gg]/- | %96
 [Gg]/[^F^f][=F=f][=EG=e][_EG_e][=DG=d][_DG_d][C=EGc][=B,-EG-=B-]/ | %97
 [B,EGB]/[_B,=EG_B][=B,EG=B][CEGc][DEGd][=DG_B=d][_EGBe][=EGB=e][_EGB_e]/ | %98
 !arpeggio!.[=EGBd=e]!f! [^f^f'] !^![gg']2!p! [gg'][ff'][=f=f'][=e=e'] | %99
!p![=d=d'][_d_d'][cc'][=B=b] z/"_cresc." [_B_b][=A=a][_A_a][Gg]/- | %100
 [Gg]/[^F^f][=F=f][=EG=e][_EG_e][=DG=d][_DG_d][CGc][=B,EG=B]/- | %101
 [B,EGB]/[_B,=EG_B][=B,EG=B][CEGc][DEGd][=DG_B=d][_EGBe][=EGB=e][_EGB_e]/ | %102
!f! [=EGB=e]!8va(! !>![^f^f'] [gb]/g'/[gb]/g'/[gb]/g'/[gb]/g'/[gb]/g'/[gb]/g'/ | %103
 z !>![^f^f'] [gb]/g'/[gb]/g'/[gb]/g'/[gb]/g'/[gb]/g'/[gb]/g'/ | %104
 z [gg'] [a=b]/a'/[ab]/a'/[ab]/a'/[ab]/a'/[ab]/a'/[ab]/a'/ | %105
 z [g=b]/g'/ [ab]/a'/[ab]/a'/ [=ae']/=a'/[be']/=b'/ [c'e']/c''/[c'e']/c''/ | %106
!fff! !//-![c'e']2 [=a'c'']2 !//-![c'e']2 [a'c'']2 | !//-![c'e']2 [=a'c'']2 !//-![c'e']2 [a'c'']2 | %108
 !arpeggio![c'e'c''][=a=a'][^f^f'][ee']!8va)! [cc'][=A=a][^F^f][Ee] | [^F^f][Ee][Cc][=A,=A] FECE | %110
!f! x4 _G/=A/!<(!c/e/!8va(!(5:4:5=a/c'/e'/_g'/=a'/!<)! | %111
 !>![_g'_g'']!8va)!!p![I:staff +1] [=A,CE_G]/!<(![I:staff -1][=Ace_g]/[I:staff +1][A,CEG]/[I:staff -1][Aceg]/[I:staff +1][A,CEG]/[I:staff -1][Aceg]/[I:staff +1] [A,CEG]/[I:staff -1][Aceg]/[I:staff +1][A,CEG]/[I:staff -1][Aceg]/[I:staff +1][A,CEG]/[I:staff -1][Aceg]/[I:staff +1][A,CEG]/!<)!!ff![I:staff -1][Aceg]/ | %112
 z[I:staff +1] B,,/D,/F,/B,/[I:staff -1]D/F/B/d/f/b/d'/!8va(!f'/b'/d''/ | %113
 [=e'=e'']!8va)!!p![I:staff +1] [G,B,D=E]/!<(![I:staff -1][GBd=e]/[I:staff +1][G,B,DE]/[I:staff -1][GBd=e]/[I:staff +1][G,B,DE]/[I:staff -1][GBd=e]/[I:staff +1] [G,B,DE]/[I:staff -1][GBd=e]/[I:staff +1][G,B,DE]/[I:staff -1][GBd=e]/[I:staff +1][G,B,DE]/[I:staff -1][GBd=e]/[I:staff +1][G,B,DE]/!<)!!ff![I:staff -1][GBd=e]/ | %114
 z[I:staff +1] E,/_G,/=A,/C/[I:staff -1]E/!<(!_G/=A/c/e/_g/=a/c'/e'/_g'/!<)! | %115
!8va(! [e'e'']!8va)!!p![I:staff +1] [F,=A,CE]/!<(![I:staff -1][F=Ace]/[I:staff +1][F,A,CE]/[I:staff -1][FAce]/[I:staff +1][F,A,CE]/[I:staff -1][FAce]/[I:staff +1] [F,A,CE]/[I:staff -1][FAce]/[I:staff +1][F,A,CE]/[I:staff -1][FAce]/[I:staff +1][F,A,CE]/[I:staff -1][FAce]/[I:staff +1][F,A,CE]/!ff![I:staff -1][FAce]/!<)! | %116
 z[I:staff +1] D,/F,/B,/[I:staff -1]D/F/!<(!B/d/f/b/d'/!8va(![ff']/b/d'/f'/!<)! | %117
 [d'd'']!8va)!!p![I:staff +1] [B,D]/!<(![I:staff -1][=EGd]/!sfz![I:staff +1][B,D]/[I:staff -1][EGd]/[I:staff +1][B,D]/[I:staff -1][EGd]/[I:staff +1] [B,D]/[I:staff -1][EGd]/[I:staff +1][B,D]/[I:staff -1][EGd]/[I:staff +1][B,D]/[I:staff -1][EGd]/[I:staff +1][B,D]/!<)!!ff![I:staff -1][EGd]/ | %118
!f! .[Ff]"_dim."!arpeggio!.[=Ac]!arpeggio!.[FA]!arpeggio!.[CF]!arpeggio!.[=A,C]!arpeggio!.[F,A,] !arpeggio!.[A,CF].[Ff] | %119
 .[Ff]!arpeggio!.[Bd]!arpeggio!.[FB]!arpeggio!.[DF]!arpeggio!.[B,D]!arpeggio!.[F,B,] !arpeggio!.[=A,EF].[Ff] | %120
 .[Ff]!arpeggio!.[Bd]!arpeggio!.[FB]!arpeggio!.[DF]!arpeggio!.[B,D]!arpeggio!.[F,B,] !arpeggio!.[C=D^F].[F^f] | %121
 [Gg]!arpeggio!.[=B=d]!arpeggio!.[GB]!arpeggio!.[=DG]!arpeggio!.[=B,D]!arpeggio!.[G,B,] .G,.[Gg] | %122
 .[Gg]!arpeggio!.[=B=d]!arpeggio!.[GB]!arpeggio!.[=DG]!arpeggio!.[=B,D]!arpeggio!.[G,B,] !arpeggio!.[B,DG].[Gg] | %123
 .[Gg]!arpeggio!.[ce]!arpeggio!.[Gc]!arpeggio!.[EG]!arpeggio!.[CE]!arpeggio!.[G,C] !arpeggio!.[=B,FG].[Gg] | %124
 .[Gg]!arpeggio!.[ce]!arpeggio!.[Gc]!arpeggio!.[EG]!arpeggio!.[CE]!arpeggio!.[G,C] !arpeggio!.[DEG].[Gg] | %125
 .[Aa]!arpeggio!.[ce]!arpeggio!.[Ac]!arpeggio!.[EA]!arpeggio!.[CE]!arpeggio!.[A,C] .A,.[Aa] | %126
 .[Aa]!arpeggio!.[ce]!arpeggio!.[Ac]!arpeggio!.[EA]!arpeggio!.[CE]!arpeggio!.[A,C] .[CEA].[Aa] | %127
 .[Aa]!arpeggio!.[df]!arpeggio!.[Ad]!arpeggio!.[FA]!arpeggio!.[DF]!arpeggio!.[A,D] .[C_GA].[Aa] | %128
 .[Aa]!arpeggio!.[df]!arpeggio!.[Ad]!arpeggio!.[FA]!arpeggio!.[DF]!arpeggio!.[A,D] .A,.[Afa] | %129
 !//-!A2 [fa]2 !//-!A2 [fa]2!pp! | !//-!A2 [fa]2 !//-!A2 [fa]2 | %131
"^dim." !//-![FG]2 [fg]2 !//-![FG]2 [fg]2 | !//-![FG]2 [fg]2 !//-![FG]2 [fg]2 | %133
 !//-![FG]2 [fg]2 !//-![FG]2 [fg]2 | !//-![FG]2 [fg]2 !//-![FG]2 [fg]2 |!ppp! [=Ec=eg]2 z2 z4 | %136
 [C=EGB]8 |!p! [=DFA=B]2 z2 z4 | [=DFA=B]8 |!p! [=EGc]2"_dim." z =e/g/!pp! c'2 z2 | %140
 z4 !>![C=EGB]4 | [=DFA=B]2 z2 z4 | z4 [=DFA=B]4 | [C=Ec]8- | [CEc]8- | [CEc]4 [Gcg]4[Q:1/4=130] | %146
 [=Ac=a]4 [Gcg]4 | [Fcf]4 [=Ec=e]4 | =d8 | [Cc]4 [G,=EG]4 | [=A,F=A]4 [G,=EG]4 | %151
 [=A,CF]4 [G,C=E]4 | [F,=A,=D]4 C4 |!pp! z .=B.c.=d .=e.f.g.=a | %154
[Q:1/4=120]"^ritard"!>(! .=b.c'.=d'.=e'[Q:1/4=112]!8va(! .f'.g'.=a'[Q:1/4=80].=b'!>)! | %155
!ppp! c''8!8va)! | [cc']8 |] %157
V:2
!pp!!ped! !//-!D,,,2 D,,2 !//-!D,,,2 D,,2 | !//-!D,,,2 D,,2 !//-!D,,,2 D,,2!ped-up! | %2
 !arpeggio![D,,,D,,]2 z2 z4 | z8 | z8 | z8 | z8 | z .A,._C.B, .A,._G,.F,.E, | %8
 =D,!ped! =D,,,/=D,,/"^cresc." D,,,/D,,/D,,,/D,,/ !//-!D,,,2 D,,2 | %9
 !//-!=D,,,2 =D,,2 !//-!D,,,2 D,,2!ped-up! |!p!!ped! !//-!E,,,2 E,,2 !//-!E,,,2 E,,2 | %11
 !//-!E,,,2 E,,2 !//-!E,,,2 E,,2!ped-up! | !arpeggio![E,,,E,,]2 z2 z4 | z8 | z8 | z8 | %16
!ped! !//-!=E,,,2 =E,,2 !//-!E,,,2 E,,2 | !//-!=E,,,2 =E,,2 !//-!E,,,2 E,,2 | %18
"^cresc." [D,,=E,,]2 [D,,E,,]2 [D,,E,,]2 [D,,E,,]2 | %19
 [D,,=E,,]2 [D,,E,,D,=E,]2 [D,,E,,D,E,]2 [D,,E,,D,E,]2!ped-up! | %20
!ped! !arpeggio![F,,,A,,,C,,F,,]!arpeggio![^F,,,^F,,]!arpeggio![G,,,G,,]!arpeggio![A,,,A,,]!ped-up!!ped! !arpeggio![=F,,,A,,,C,,=F,,]!arpeggio![^F,,,^F,,]!arpeggio![G,,,G,,]!arpeggio![A,,,A,,]!ped-up! | %21
!ped! !arpeggio![F,,,A,,,C,,F,,]!arpeggio![^F,,,^F,,]!arpeggio![G,,,G,,]!arpeggio![A,,,A,,]!ped-up!!ped! !arpeggio![=F,,,A,,,C,,=F,,]!arpeggio![^F,,,^F,,]!arpeggio![G,,,G,,]!arpeggio![A,,,A,,]!ped-up! | %22
!ped! !arpeggio![F,,,A,,,C,,F,,]!arpeggio![^F,,,^F,,]!arpeggio![G,,,G,,]!arpeggio![A,,,A,,]!ped-up!!ped! !arpeggio![=F,,,A,,,C,,=F,,]!arpeggio![^F,,,^F,,]!arpeggio![G,,,G,,]!arpeggio![A,,,A,,]!ped-up! | %23
!ped! !arpeggio![F,,,A,,,C,,F,,]!arpeggio![^F,,,^F,,]!arpeggio![G,,,G,,]!arpeggio![A,,,A,,]!ped-up!!ped! !arpeggio![=F,,,A,,,C,,=F,,]!arpeggio![^F,,,^F,,]!arpeggio![G,,,G,,]!arpeggio![A,,,A,,]!ped-up! | %24
!ped! [G,,,B,,,D,,=E,,G,,][A,,,A,,][=A,,,D,,E,,=A,,][B,,,B,,]!ped-up!!ped! [G,,,B,,,D,,E,,G,,][_A,,,_A,,][=A,,,D,,E,,=A,,][B,,,B,,]!ped-up! | %25
!ped! [G,,,B,,,D,,=E,,G,,][A,,,A,,][=A,,,D,,E,,=A,,][B,,,B,,]!ped-up!!ped! [G,,,B,,,D,,E,,G,,][_A,,,_A,,][=A,,,D,,E,,=A,,][B,,,B,,]!ped-up! | %26
!ped! [G,,,B,,,D,,=E,,G,,][A,,,A,,][=A,,,D,,E,,=A,,][B,,,B,,]!ped-up!!ped! [G,,,B,,,D,,E,,G,,][_A,,,_A,,][=A,,,D,,E,,=A,,][B,,,B,,]!ped-up! | %27
!ped! [G,,,B,,,D,,=E,,G,,][A,,,A,,][=A,,,D,,E,,=A,,][B,,,B,,]!ped-up!!ped! [G,,,B,,,D,,E,,G,,][_A,,,_A,,][=A,,,D,,E,,=A,,][B,,,B,,]!ped-up! | %28
!ped! [=A,,,C,,E,,_G,,=A,,][B,,,B,,][=B,,,E,,G,,A,,=B,,][C,,C,]!ped-up!!ped! [A,,,C,,E,,G,,A,,][_B,,,_B,,][=B,,,E,,G,,A,,=B,,][C,,C,]!ped-up! | %29
!ped! [=A,,,C,,E,,_G,,=A,,][B,,,B,,][=B,,,E,,G,,A,,=B,,][C,,C,]!ped-up!!ped! [A,,,C,,E,,G,,A,,][_B,,,_B,,][=B,,,E,,G,,A,,=B,,][C,,C,]!ped-up! | %30
!ped! [=A,,,C,,E,,_G,,=A,,][B,,,B,,][=B,,,E,,G,,A,,=B,,][C,,C,]!ped-up!!ped! [A,,,C,,E,,G,,A,,][_B,,,_B,,][=B,,,E,,G,,A,,=B,,][C,,C,]!ped-up! | %31
!ped! [=A,,,C,,E,,_G,,=A,,][B,,,B,,][=B,,,E,,G,,A,,=B,,][C,,C,]!ped-up!!ped! x2 [E,_G,]>[E,G,]!ped-up! | %32
!ped! [D,F,] x x2 x4!ped-up! |!ped! [=D,F,] x x2 x4!ped-up! | %34
 [=E,G,]2 z2!ped! [C,C]3 .[G,,G,]!ped-up! | %35
 .[A,,A,].[=E,,=E,].[F,,F,].[C,,C,] .[D,,D,].[C,,C,].[C,,C,].[B,,,B,,] | %36
 .[A,,,A,,]2 z2!ped! [A,,A,]3 [=E,,=E,]!ped-up! | %37
 .[F,,F,].[C,,C,].[D,,D,].[A,,,A,,] .[B,,,B,,].[A,,,A,,].[A,,,A,,].[G,,,G,,] | %38
 .[F,,,F,,]2 z2 [F,,F,]3 .[C,,C,] | %39
 .[D,,D,].[A,,,A,,].[B,,,B,,].[F,,,F,,] .[_G,,,_G,,].[F,,,F,,].[F,,,F,,].E,, | %40
!pp!!ped! D,!<(! x x2 x4 | %41
 A,,/B,,/A,,/_G,,/ F,,/G,,/F,,/E,,/ D,,/C,,/D,,/E,,/ F,,/G,,/F,,/E,,/!<)! | %42
!f! .D,, z!f! [F,A,D]/!<(!F/[F,A,D]/F/ x/ [A,F]/x/[A,F]/x/[A,F]/x/!<)!!ff![A,F]/ | %43
 x/!>(! [A,F]/x/[A,F]/x/[A,F]/x/[A,F]/ x/ [A,F]/x/[A,F]/x/[A,F]/x/[A,F]/!ped-up!!>)! | %44
!ped! =B,,,/C,,/=D,,/C,,/ B,,,/C,,/D,,/E,,/ F,,/G,,/F,,/E,,/ D,,/E,,/D,,/C,,/ | %45
 =B,,,/C,,/=D,,/E,,/ F,,/E,,/D,,/C,,/ B,,,/C,,/D,,/C,,/ B,,,/C,,/D,,/C,,/!ped-up! | %46
!ped! =B,,, z!f! [F,G,=B,=D]/!<(![FG]/[F,G,B,D]/[FG]/ x/ [B,FG]/x/[B,FG]/x/[B,FG]/x/!<)!!ff![B,FG]/ | %47
 x/!>(! [=B,FG]/x/[B,FG]/x/[B,FG]/x/[B,FG]/ x/ [B,FG]/x/[B,FG]/x/[B,FG]/x/[B,FG]/!ped-up!!>)! | %48
!mp!!ped! C,,/"_cresc."=D,,/E,,/D,,/ E,,/F,,/E,,/F,,/ G,,/A,,/G,,/F,,/ E,,/F,,/E,,/D,,/ | %49
 C,,/=D,,/E,,/F,,/ G,,/A,,/G,,/F,,/ E,,/F,,/E,,/D,,/ C,,/B,,,/A,,,/G,,,/ | %50
!ff! !>![^F,,,^F,,] z[K:treble] !arpeggio!.[^F,CE=A] z[K:bass] !//-!!^![E,^F,]2 =A,2!ped-up! | %51
!ped! [C,E,=A,] z[K:treble] .[=A,CE=A] z[K:bass] !//-![C,E,F,]2 A,2!ped-up! | %52
!ped! [B,,D,F,B,] z[K:treble] .[B,DFB]2[K:bass] !//-![D,F,]2 B,2!ped-up! | %53
!ped! [=D,F,=B,] z[K:treble] [G,=DF=B]2[K:bass] !//-![D,F,G,]2 B,2!ped-up! | %54
!ped! .[E,G,C] z .[C,E,G,C]!ped-up! z!ped! .[=E,G,C] z .[B,,E,G,C]!ped-up! z | %55
!ped! .[=A,,,=E,,=A,,]!p! z !//-![=A,^C]3 =E3 |!f! z/!p! =E/[=A,^C]/E/ !//-![A,C]3 E3!ped-up! | %57
!f!!ped! z/!p! =E/[G,B,^C]/E/ !//-![G,B,C]3 E3 | !//-![G,B,^C]2 =E2 !//-![G,B,C]2 E2!ped-up! | %59
!f!!ped! z!p! [G,B,^C]/=E/ !//-![G,B,C]3 E3 | %60
 !//-!^C2 =E2 [G,B,]/C/[G,B,]/C/ G,/B,/G,/B,/!ped-up! |!ped! z8 | z8!ped-up! | %63
!ped! =D,,/=A,,,/=B,,,/^C,,/ D,,/A,,,/B,,,/C,,/ D,,/A,,,/B,,,/C,,/ D,,/A,,,/B,,,/C,,/ | %64
 =D,,/=A,,,/=B,,,/^C,,/ D,,/A,,,/B,,,/C,,/ D,,/A,,,/B,,,/C,,/ D,,/A,,,/B,,,/C,,/!ped-up! | %65
!ped! =D,,!ppp! z z2 z2 =D2 | G2 ^F2 z2 =D2!ped-up! | %67
 _B2!ped! (5:4:5^F,,,/G,,,/=A,,,/B,,,/C,,/ (5:4:5F,,,/G,,,/A,,,/B,,,/C,,/ (5:4:5F,,,/G,,,/A,,,/B,,,/C,,/ | %68
 (5:4:5^F,,,/G,,,/=A,,,/B,,,/C,,/ (5:4:5F,,,/G,,,/A,,,/B,,,/C,,/ (5:4:5F,,,/G,,,/A,,,/B,,,/C,,/ (5:4:5F,,,/G,,,/A,,,/B,,,/C,,/!ped-up! | %69
!ped! [^F,,,=A,,,C,,] [^F,=A,C]/E/ !//-![F,A,C]3 E3 | !//-![^F,=A,C]2 E2 !//-![F,A,C]2 E2!ped-up! | %71
!ped! !arpeggio![=F,,,=A,,,C,,E,,=A,,]2 !arpeggio![F,,,A,,,C,,E,,A,,]2 !arpeggio![F,,,A,,,C,,E,,A,,]2 !arpeggio![F,,,A,,,C,,E,,A,,]2 | %72
 !arpeggio![F,,,=A,,,C,,E,,=A,,]2 !arpeggio![F,,,A,,,C,,E,,A,,]2 !arpeggio![F,,,A,,,C,,E,,A,,]2 !arpeggio![F,,,A,,,C,,E,,A,,]2!ped-up! | %73
!ped! !arpeggio![B,,,D,,F,,D,]2 !arpeggio![B,,,D,,F,,D,]2 !arpeggio![B,,,D,,F,,D,]2 !arpeggio![B,,,D,,F,,D,]2 | %74
 !arpeggio![B,,,D,,F,,D,]2 !arpeggio![B,,,D,,F,,D,]2 !arpeggio![B,,,D,,F,,D,]2 !arpeggio![B,,,D,,F,,D,]2!ped-up! | %75
!ped! !arpeggio![G,,,=B,,,=D,,F,,=B,,]2 !arpeggio![G,,,B,,,D,,F,,B,,]2 !arpeggio![G,,,B,,,D,,F,,B,,]2 !arpeggio![G,,,B,,,D,,F,,B,,]2 | %76
 !arpeggio![G,,,=B,,,=D,,F,,=B,,]2 !arpeggio![G,,,B,,,D,,F,,B,,]2 !arpeggio![G,,,B,,,D,,F,,B,,]2 !arpeggio![G,,,B,,,D,,F,,B,,]2!ped-up! | %77
!ped! z2 [G,=B,=DG]4 [F,,=B,,=D,F,]2!ped-up! |!ped! z2 [G,CEG]4 [=D,,F,,G,,=B,,=D,]2!ped-up! | %79
!ped! z2 [G,CEG]4 [B,,,_D,,E,,G,,B,,]2!ped-up! |!ped! z2 [A,CEA]4 [A,,,A,,]2 | %81
 x2 !>![A,CEA]4 [_G,,A,,C,E,_G,]2!ped-up! | %82
!ped! x2 !>![A,DFA]4!ped-up!!ped! [E,,_G,,A,,C,E,]2!ped-up! | %83
!ped! x2 !>![A,DFA]4!ped-up!!ped! [_C,,F,,_C,]2!ped-up! |!ped! x2 !>![B,=DFB]4 [B,,,B,,]2 | %85
 x2 !>![B,=DFB]4 [A,,B,,_D,F,A,]2!ped-up! | %86
!ped! x2 !>![B,E_GB]4!ped-up!!ped! [F,,A,,B,,=D,F,]2!ped-up! | %87
!ped! x2 !>![B,E_GB]4!ped-up! [A,,E,A,][A,,E,A,] |!ped! [D,,D,]2 z [F,DF] [F,F]4!ped-up! | %89
 .[B,,B,].[F,,F,].[_G,,_G,].[F,,F,] .[E,,E,].[D,,D,].[D,,D,].[C,,C,] | %90
 .[B,,,B,,]2 z!ped! [D,B,D] !>![D,D]4!ped-up! | %91
 .[_G,,_G,].[D,,D,].[E,,E,].[D,,D,] .[_C,,_C,].[B,,,B,,].[B,,,B,,].[A,,,A,,] | %92
 .[_G,,,_G,,]2 z!ped! !>![_G,_G] G4!ped-up! | %93
 .[E,,E,].[B,,,B,,].[_C,,_C,].[B,,,B,,] .[A,,,A,,].[_G,,,_G,,].[G,,,G,,].[=E,,=E,] | %94
!ped! !arpeggio!.[=E,,B,,D,=E,] z!ped-up!!p!!ped! !//-![B,D]3 G3 | %95
 !//-![B,D]2 G2 [B,D][=A,B,D][_A,B,D][G,B,D] | %96
 [^F,B,D][=F,B,D][=E,B,D][_E,B,D] [=D,G,B,][_D,G,B,][C,G,B,][=B,,=E,G,] | %97
 [_B,,=E,G,][=B,,E,G,][C,G,_B,][D,G,B,] [=D,G,B,][_E,G,B,D][=E,G,B,D][_E,G,B,D]!ped-up! | %98
!ped! !arpeggio!.[=E,,G,,B,,D,=E,] z!p! !//-![B,D]3 G3 | %99
 !//-![B,D]2 G2 [B,D][=A,B,D][_A,B,D][G,B,D] | %100
 [^F,B,D][=F,B,D][=E,B,D][_E,B,D] [=D,G,B,][_D,G,B,][C,G,B,][=B,,=E,G,] | %101
 [_B,,=E,G,][=B,,E,G,][C,G,_B,][C,G,B,] [=D,G,B,][_E,G,B,D][=E,G,B,D][_E,G,B,D]!ped-up! | %102
!ped! [=E,G,B,D] z [G,G]!ff![E,=E] [D,D][B,,B,][G,,G,][=E,,E,]!ped-up! | %103
!ped! !^![_E,,_E,] z [G,G]!ff![E,E] [D,D][B,,B,][G,,G,][E,,E,]!ped-up! | %104
!ped! !^![=D,,=D,] z [A,A]!ff![F,F] [D,=D][=B,,=B,][A,,A,][F,,F,]!ped-up! | %105
!ped! [_D,,_D,] z [=B,FA] z!ped-up!!ped! [C,,C,] z [=A,E^F=A] z!ped-up! | %106
!ped! [^F,,,C,,E,,^F,,][G,,,G,,][^G,,,C,,E,,^G,,][=A,,,=A,,] [F,,,C,,E,,F,,][=G,,,=G,,][^G,,,C,,E,,^G,,][A,,,A,,] | %107
 [^F,,,C,,E,,^F,,][G,,,G,,][^G,,,C,,E,,^G,,][=A,,,=A,,] [F,,,C,,E,,F,,][=G,,,=G,,][^G,,,C,,E,,^G,,][A,,,A,,] | %108
 [^F,,,C,,E,,^F,,] z [=A,,,=A,,][C,,C,] [E,,E,][F,,^F,][A,,=A,][C,C] | %109
 [E,E][C,C][=A,,=A,][^F,,^F,] F,E,C,E,!ped-up! | %110
!f!!ped! z/ =A,,/C,/E,/_G,/=A,/[I:staff -1]C/E/[I:staff +1] x2 x2!ped-up! | %111
!ped! [F,,=A,,E,_G,]8!ped-up! |!f!!ped! x8!ped-up! |!ped! [F,,B,,D,=G,]8!ped-up! | %114
!f!!ped! !arpeggio![F,,,=A,,,C,,E,,_G,,]2 !arpeggio![F,,,A,,,C,,E,,G,,]2 !arpeggio![F,,,A,,,C,,E,,G,,]2 !arpeggio![F,,,A,,,C,,E,,G,,]2!ped-up! | %115
!ped! [F,,=A,,C,F,]8!ped-up! | %116
!ped! !arpeggio![F,,,B,,,D,,F,,]2 !arpeggio![F,,,B,,,D,,F,,]2 !arpeggio![F,,,B,,,D,,F,,]2 !arpeggio![F,,,B,,,D,,F,,]2!ped-up! | %117
!ped! [F,,G,,B,,D,=E,]8!ped-up! | %118
!mf!!ped! z/!p! F,/[=A,,C,]/F,/[A,,C,]/F,/[A,,C,]/F,/[A,,C,]/F,/C,/A,,/!ped-up!!mf! z/!mp! F,/[A,,C,]/F,/ | %119
!mf!!ped! z/!p! F,/[B,,D,]/F,/ [B,,D,]/F,/[B,,D,]/F,/ [B,,D,]/F,/D,/B,,/!ped-up!!mf! z/ F,/[=A,,E,]/F,/ | %120
!mf!!ped! z/!p! F,/[B,,D,]/F,/ [B,,D,]/F,/[B,,D,]/F,/ [B,,D,]/F,/D,/B,,/!ped-up!!mf! z/!p! ^F,/[C,=D,]/F,/ | %121
!mf!!ped! z/!p! G,/[=B,,=D,]/G,/[B,,D,]/G,/[B,,D,]/G,/[B,,D,]/G,/D,/B,,/!ped-up!!mf! z/!p! G,/[B,,D,]/G,/ | %122
!mf!!ped! z/!p! G,/[=B,,=D,]/G,/[B,,D,]/G,/[B,,D,]/G,/[B,,D,]/G,/D,/B,,/!ped-up!!mf! z/!p! G,/[B,,D,]/G,/ | %123
!mf!!ped! z/!p! G,/[C,E,]/G,/[C,E,]/G,/[C,E,]/G,/[C,E,]/G,/E,/C,/!ped-up!!mf! z/!p! G,/[=B,,F,]/G,/ | %124
!mf!!ped! z/!p! G,/[C,E,]/G,/[C,E,]/G,/[C,E,]/G,/[C,E,]/G,/E,/C,/!ped-up!!mf! z/!p! G,/[D,E,]/G,/ | %125
!mf!!ped! z/!p! A,/[C,E,]/A,/[C,E,]/A,/[C,E,]/A,/[C,E,]/A,/E,/C,/!ped-up!!mf! z/!p! A,/[C,E,]/A,/ | %126
!mf!!ped! z/!p! A,/[C,E,]/A,/[C,E,]/A,/[C,E,]/A,/[C,E,]/A,/E,/C,/!ped-up!!mf! z/!p! A,/[C,E,]/A,/ | %127
!mp!!ped! z/!p! A,/[D,F,]/A,/ [D,F,]/A,/[D,F,]/A,/ [D,F,]/A,/F,/D,/!ped-up!!mp! z/!p! A,/[C,_G,]/A,/ | %128
!mp!!ped! z/!p! A,/[D,F,]/A,/ [D,F,]/A,/[D,F,]/A,/ [D,F,]/A,/F,/D,/!ped-up!!ped! C,/A,,/F,,/C,,/!ped-up! | %129
!p!!ped! =B,,,/=B,,/B,,,/B,,/ C,,/C,/C,,/C,/ B,,,/B,,/B,,,/B,,/ C,,/C,/C,,/C,/!ped-up! | %130
!ped! =D,,/=D,/D,,/D,/ C,,/C,/C,,/C,/ D,,/D,/D,,/D,/ C,,/C,/C,,/C,/!ped-up! | %131
!ped!"^dim." =B,,,/=B,,/B,,,/B,,/ C,,/C,/C,,/C,/ =D,,/=D,/D,,/D,/ C,,/C,/C,,/C,/!ped-up! | %132
!ped! =B,,,/=B,,/B,,,/B,,/ C,,/C,/C,,/C,/ B,,,/B,,/B,,,/B,,/ =A,,,/=A,,/A,,,/A,,/!ped-up! | %133
!ped! G,,,/G,,/G,,,/G,,/ =A,,,/=A,,/A,,,/A,,/ G,,,/G,,/G,,,/G,,/ F,,,/F,,/F,,,/F,,/ | %134
 =E,,,/=E,,/E,,,/E,,/ F,,,/F,,/F,,,/F,,/ E,,,/E,,/E,,,/E,,/ =D,,,/=D,,/D,,,/D,,/!ped-up! | %135
!pp!!ped! !//-!C,,,2 C,,2 !//-!C,,,2 C,,2!ped-up! | %136
!f!!ped! ^F,,,/C,,/G,,,/C,,/ F,,,/C,,/G,,,/C,,/ A,,,/C,,/G,,,/C,,/ A,,,/C,,/G,,,/C,,/!ped-up! | %137
!pp!!ped! !//-!C,,,2 C,,2 !//-!C,,,2 C,,2 | %138
!f! F,,,/C,,/G,,,/C,,/F,,,/C,,/G,,,/C,,/ A,,,/C,,/G,,,/C,,/A,,,/C,,/G,,,/C,,/!ped-up! | %139
!pp!!ped! !//-!C,,,2 C,,2 !//-!C,,,2 C,,2 | %140
!<(! ^F,,,/C,,/G,,,/C,,/ F,,,/C,,/G,,,/!<)!!p!C,,/!>(! A,,,/C,,/G,,,/C,,/ A,,,/C,,/G,,,/!>)!!pp!C,,/!ped-up! | %141
!pp!!ped! !//-!C,,,2 C,,2 !//-!C,,,2 C,,2 | %142
 F,,,/C,,/G,,,/C,,/F,,,/C,,/G,,,/C,,/ A,,,/C,,/G,,,/C,,/A,,,/C,,/G,,,/C,,/!ped-up! | %143
!ped! C,,/G,,,/=A,,,/=B,,,/ C,,/G,,,/A,,,/B,,,/ C,,/G,,,/A,,,/B,,,/ C,,/G,,,/A,,,/B,,,/ | %144
 C,,/G,,,/=A,,,/=B,,,/ C,,/G,,,/A,,,/B,,,/ C,,/G,,,/A,,,/B,,,/ C,,/G,,,/A,,,/B,,,/ | %145
 C,,2!ped-up! z2 [C,=E,C]4 | [C,F,C]4 [C,=E,C]4 | [C,=A,C]4 [C,G,C]4 |!ped! [C,F,=B,]8!ped-up! | %149
!ped! =E,4 x4!ped-up! | C,,2 z2 z4 | z8 | x4 [=E,G,]4 | [G,,=D,F,=B,]8- | [G,,D,F,B,]8 |!ped! z8 | %156
!ppp! [C,=E,=G,C]8!ped-up! |] %157
V:3
 x8 | x8 | x8 | x8 | .E.F.E.D .C.E.D.A | .E.F.E.D .C.E.D.A | .=D.A.c.B .A._G.F.E | %7
 =D2 .D.E .F._G.A.B | x8 | x8 | x8 | x8 | x8 | x8 | .F._G.F.E .=D.F.E.B | .F._G.F.E .=D.F.E.B | %16
 .=E.B.d.c .B.A .G2 | z .B,.D.C.B,.A, .G,2 | [=EB]2 z2 z4 | x8 | x8 | x8 | x8 | x8 | x8 | x8 | x8 | %27
 x8 | x8 | x8 | x8 | x8 | x!8va(! x2!8va)! x5 | x8 | x8 | x8 | x8 | x8 | x8 | x8 | %40
 x F,/F,/ F,/F,/F,/F,/ F,/F,/F,/F,/F,/F,/F,/F,/ | %41
 F,/F,/F,/F,/F,/F,/F,/F,/ F,/F,/F,/F,/F,/F,/F,/F,/ | x!8va(! x2!8va)! x5 | x8 | %44
[K:bass] =B,,=D,B,,D, F,F,D,D, | =B,,=D,F,D, B,,D,B,,D, | x[K:treble] x7 | x8 | x8 | x8 | %50
 x!8va(! x2!8va)! x5 | x!8va(! x2!8va)! x5 | x!8va(! x2!8va)! x5 | x!8va(! x2!8va)! x5 | x8 | x8 | %56
 x8 | x8 | .^c.^c'.=e'.=d' .c'.b.=a.g | .=e'.b.=a.g .f.=e.=d.^c | x8 | x8 | x8 |[K:bass] x8 | x8 | %65
 x[K:treble] x7 | x!8va(! x7 | x2!8va)! [=A,C]/E/[A,C]/E/ !//-![A,C]2 E2 | x8 | x8 | x8 | %71
 x2 _G,2 =A,4 | z .[ee'].f'.[ee'] .[dd'].[cc'].[Bb].[=A=a] | x2 _G,2 B,4 | %74
 z .[ff']._g'.[ff'] .[ee'].[dd'].[cc'].[Bb] | x2 _A,2 =B,4 | %76
 z .[ff'].g'.[ff'] .[ee'].[=d=d'].[cc'].[=B=b] | x8 | x8 | x8 | x8 | x8 | x8 | x6!8va(! x2 | %84
 x2!8va)! x5!8va(! x | x2!8va)! x5!8va(! x | x2!8va)! x5!8va(! x | x2!8va)! x6 | x4 d'3 .[Aa] | %89
 x8 | x4 b3 .[Ff] | x8 | x4 _g3 .[Dd] | x8 | x8 | x8 | x8 | x8 | x8 | x8 | x8 | x8 | x!8va(! x7 | %103
 x8 | x8 | x8 | x8 | x8 | x4!8va)! x4 | x8 | x6!8va(! x2 | x!8va)! x7 | x13/2!8va(! x3/2 | %113
 x!8va)! x7 | x8 |!8va(! x!8va)! x7 | x6!8va(! x2 | x!8va)! x7 | x8 | x8 | x8 | x8 | x8 | x8 | x8 | %125
 x8 | x8 | x8 | x8 | x8 | x8 | x8 | x8 | x8 | x8 | x8 | x8 | x8 | x8 | x8 | x8 | x8 | x8 | x8 | %144
 x8 | x8 | x8 | x8 | =D4 F4 | x8 | x8 | x8 | x8 | x8 | x4!8va(! x4 | x8!8va)! | x8 |] %157
V:4
 x8 | x8 | x8 | x8 | x8 | x8 | x8 | x8 | x8 | x8 | x8 | x8 | x8 | x8 | x8 | x8 | x8 | x8 | %18
 (3G,,,A,,,B,,, (3G,,,A,,,B,,, (3G,,,A,,,B,,, (3G,,,A,,,B,,, | %19
 (3G,,,A,,,B,,, (3G,,,A,,,B,,, (3[G,,,G,,][A,,,A,,][B,,,B,,] (3[G,,,G,,][A,,,A,,][B,,,B,,] | x8 | %21
 x8 | x8 | x8 | x8 | x8 | x8 | x8 | x8 | x8 | x8 | %31
 x4 [=A,,,C,,E,,_G,,=A,,][_B,,,_B,,][=B,,,E,,G,,A,,=B,,][C,,C,] | %32
 !//-![B,,,D,,F,,]2 B,,2 !//-![B,,D,]2 F,2 | !//-![=B,,,=D,,F,,A,,]2 =B,,2 !//-![B,,=D,F,]2 A,2 | %34
 [C,,=E,,G,,C,]2 x2 x4 | x8 | x8 | x8 | x8 | x8 | %40
 D,,/C,,/D,,/E,,/ F,,/E,,/F,,/_G,,/ A,,/B,,/A,,/G,,/ F,,/E,,/F,,/G,,/ | x8 | %42
 x4 [F,D]/x/[F,D]/x/[F,D]/x/[F,D]/ x/ | %43
 [F,D]/x/[F,D]/x/[F,D]/x/[F,D]/ x/ [F,D]/x/[F,D]/x/[F,D]/x/[F,D]/ x/ | x8 | x8 | %46
 x4 [F,G,=D]/x/[F,G,D]/x/[F,G,D]/x/[F,G,D]/ x/ | %47
 [F,G,=D]/x/[F,G,D]/x/[F,G,D]/x/[F,G,D]/ x/ [F,G,D]/x/[F,G,D]/x/[F,G,D]/x/[F,G,D]/ x/ | %48
 C,,,2 E,,,2 G,,,2 C,,,2 | C,,,2 G,,,2 E,,,2 C,,,2 | x2[K:treble] x2[K:bass] x4 | %51
 [=F,,,A,,,C,,=F,,] z[K:treble] x2[K:bass] x4 | [B,,,D,,F,,] z[K:treble] x2[K:bass] x4 | %53
 [=B,,,=D,,G,,] z[K:treble] x2[K:bass] x4 | .[C,,E,,G,,C,] x x x .[B,,,=E,,G,,B,,] x x x | x8 | %56
 =A,,8 | G,,8- | G,,8 | =E,,8 | [G,B,]8 | x8 | x8 | =D,,,2 D,,,2 D,,,2 D,,,2 | %64
 =D,,,2 D,,,2 D,,,2 D,,,2 | =D,,, x !//-!^F,3 =A,3 | !//-!^F,2 =A,2 !//-!F,2 A,2 | %67
 !arpeggio![^F,C]2 x2 x2 x2 | x8 | x8 | x8 | x8 | x8 | x8 | x8 | x8 | x8 | [G,,=B,,=D,G,]4 x4 | %78
 [E,,G,,C,E,]4 x4 | [C,,E,,G,,C,]4 x4 | [A,,,C,,E,,A,,]4 x4 | [A,,C,E,A,]4 x4 | [F,,A,,D,F,]4 x4 | %83
 [D,,F,,A,,D,]4 x4 | [B,,,=D,,F,,B,,]4 x4 | [B,,=D,F,B,]4 x4 | [_G,,B,,E,_G,]4 x4 | %87
 [E,,_G,,B,,E,]4 x4 | x4 D3 .[A,,A,] | x8 | x4 B,3 .[F,,F,] | x8 | x4 _G,3 .[D,,D,] | x8 | x8 | %95
 x8 | x8 | x8 | x8 | x8 | x8 | x8 | x8 | x8 | x8 | x8 | x8 | x8 | x8 | %109
 x4 [E,,E,][C,,C,][=A,,,=A,,][^F,,,^F,,] | %110
 !arpeggio!!^![=F,,,=A,,,C,,E,,_G,,]2 !arpeggio!!^![F,,,A,,,C,,E,,G,,]2 !arpeggio!!^![F,,,A,,,C,,E,,G,,]2 !arpeggio!!^![F,,,A,,,C,,E,,G,,]2 | %111
 x8 | %112
 !arpeggio![F,,,B,,,D,,F,,]2 !arpeggio![F,,,B,,,D,,F,,]2!<(! !arpeggio![F,,,B,,,D,,F,,]2 !arpeggio![F,,,B,,,D,,F,,]2!<)! | %113
 x8 | x8 | x8 | x8 | x8 | !>!F,,4 x2 !>!E,,2 | !>!D,,4 x2 !>!C,,2 | !>!B,,,4 x2 !>!A,,,2 | %121
 !>!G,,,4 x2 !>!B,,,2 | !>!G,,,4 x2 F,,2 | E,,4 x2 =D,,2 | !>!C,,4 x2 !>!B,,,2 | %125
 !>!A,,,4 x2 !>!A,,2 | !>!A,,4 x2 !>!_G,,2 | F,,4 x2 E,,2 | D,,4 x2 C,2 | x8 | x8 | x8 | x8 | x8 | %134
 x8 | x8 | ^F,,,G,,,F,,,G,,, A,,,G,,,A,,,G,,, | x8 | F,,,G,,,F,,,G,,, A,,,G,,,A,,,G,,, | x8 | %140
 ^F,,,G,,,F,,,G,,, A,,,G,,,A,,,G,,, | x8 | F,,,G,,,F,,,G,,, A,,,G,,,A,,,G,,, | %143
 C,,,2 C,,,2 C,,,2 C,,,2 | C,,,2 C,,,2 C,,,2 C,,,2 | x8 | x8 | x8 | %148
 z2 z/ G,,,/=A,,,/=B,,,/ C,,/G,,,/A,,,/B,,,/ C,,/G,,,/A,,,/B,,,/ | %149
 C,,2 z2 z/ G,,,/=A,,,/=B,,,/ C,,/G,,,/A,,,/B,,,/ | x8 | x8 | %152
 z!pp! [C,,,C,,]/[C,,,C,,]/ (3[C,,,C,,][C,,,C,,][C,,,C,,] [C,,,C,,]2 z2 | x8 | x8 | x8 | x8 |] %157
V:5
 x8 | x8 | x8 | x8 | x8 | x8 | x8 | x8 | x8 | x8 | x8 | x8 | x8 | x8 | x8 | x8 | x8 | x8 | x8 | %19
 x8 | x8 | x8 | x8 | x8 | x8 | x8 | x8 | x8 | x8 | x8 | x8 | x8 | x!8va(! x2!8va)! x5 | x8 | x8 | %35
 x8 | x8 | x8 | x8 | x8 | x8 | x8 | x!8va(! x2!8va)! x5 | x8 |[K:bass] x8 | x8 | x[K:treble] x7 | %47
 x8 | x8 | x8 | x!8va(! x2!8va)! x5 | x!8va(! x2!8va)! x5 | x!8va(! x2!8va)! x5 | %53
 x!8va(! x2!8va)! x5 | x8 | x8 | x8 | x8 | x8 | x8 | x8 | x8 | x8 |[K:bass] x8 | x8 | %65
 x[K:treble] x7 | x!8va(! x7 | x2!8va)! x6 | x8 | x8 | x8 | x6 _G2 | x2 _g2 x4 | x6 _G2 | %74
 x2 _g2 x4 | x6 A2 | x2 a2 x4 | x8 | x8 | x8 | x8 | x8 | x8 | x6!8va(! x2 | x2!8va)! x5!8va(! x | %85
 x2!8va)! x5!8va(! x | x2!8va)! x5!8va(! x | x2!8va)! x6 | x8 | x8 | x8 | x8 | x8 | x8 | x8 | x8 | %96
 x8 | x8 | x8 | x8 | x8 | x8 | x!8va(! x7 | x8 | x8 | x8 | x8 | x8 | x4!8va)! x4 | x8 | %110
 x6!8va(! x2 | x!8va)! x7 | x13/2!8va(! x3/2 | x!8va)! x7 | x8 |!8va(! x!8va)! x7 | x6!8va(! x2 | %117
 x!8va)! x7 | x8 | x8 | x8 | x8 | x8 | x8 | x8 | x8 | x8 | x8 | x8 | x8 | x8 | x8 | x8 | x8 | x8 | %135
 x8 | x8 | x8 | x8 | x8 | x8 | x8 | x8 | x8 | x8 | x8 | x8 | x8 | x8 | x8 | x8 | x8 | x8 | x8 | %154
 x4!8va(! x4 | x8!8va)! | x8 |] %157

